src/DGGeoclicker/skin/dark/img/DGPopup__entranceIcon_dark.svg

<svg xmlns="http://www.w3.org/2000/svg" width="12" height="12"><path fill-rule="evenodd" clip-rule="evenodd" fill="#A0A0A0" d="M5 9l4-3-4-3v2h-5v2h5v2zm4.6-9h-7.2c-1.326 0-2.4 1.074-2.4 2.4v1.6h2v-.4c0-.884.716-1.6 1.6-1.6h4.8c.883 0 1.6.716 1.6 1.6v4.8c0 .884-.717 1.6-1.6 1.6h-4.8c-.884 0-1.6-.716-1.6-1.6v-.4h-2v1.6c0 1.325 1.074 2.4 2.4 2.4h7.2c1.326 0 2.4-1.075 2.4-2.4v-7.2c0-1.326-1.074-2.4-2.4-2.4z"/></svg>

<svg xmlns="http://www.w3.org/2000/svg" width="12" height="12">
    <path d="M 5,9 9,6 5,3 V 5 H 0 V 7 H 5 V 9 z M 9.6,0 H 2.4 C 1.074,0 0,1.074 0,2.4 V 4 H 2 V 3.6 C 2,2.716 2.716,2 3.6,2 H 8.4 C 9.283,2 10,2.716 10,3.6 V 8.4 C 10,9.284 9.283,10 8.4,10 H 3.6 C 2.716,10 2,9.284 2,8.4 V 8 H 0 V 9.6 C 0,10.925 1.074,12 2.4,12 H 9.6 C 10.926,12 12,10.925 12,9.6 V 2.4 C 12,1.074 10.926,0 9.6,0 z" fill="#a0a0a0" fill-rule="evenodd"/>
</svg>
